X:1
T:Da Floating Gin Palaces of Lerwick
R:Reel
S: Dominique Renaudin <domren:free.fr> tradtunes 2008-4-22
M:C|
K:A dorian
|: e2ed efge | dBAB d2Bd | efge a2fg | edBG A2A2 :|
|: a2ea agef | a2ea gedB | a2ea agdf | gedB A2A2 :|
